X: 3
T: Queen Of The Fair
R: jig
M: 6/8
L: 1/8
K: Dmaj
AG|:FEF DA,A,|DFA dAF|GFG FGA|BGE EAG|
FEF DA,A,|DFA dAF|GFG EAG|1 (3FGA D DAG:|2 (3FGA D D de||
fdf ece|dAG FEF|DFA dAF|GFG E de|
fdf ece|dAG FED|EFG BAG|1 FAD D de:|2 (3FGA D D dB||
Add fdd|ade fdB|Adf ~g2 e|fdf ecB|
Add fdd|ade fdA|EFG BAG|FAD D dB||
Add fdd|ade fdB|Adf ~g2 e|fdf ece|
afa geg|fdf ecA|EFG BAG|(3FGA D DAG|]


Tune 772	Setting 772

